packages/ui/assets/svg/partner_boba.svg

<svg class="partner-size" width="100" height="40" viewBox="0 0 100 40" fill="none" xmlns="http://www.w3.org/2000/svg">
<g id="partner_boba" clip-path="url(#clip0_205_7)">
<path id="path4" d="M37.7815 38.9858C31.3988 38.9858 26.2055 33.8103 26.2055 27.4493C26.2055 21.0883 31.3988 15.9128 37.7815 15.9128C44.1643 15.9128 49.3575 21.0883 49.3575 27.4493C49.3575 33.8103 44.1643 38.9858 37.7815 38.9858ZM37.7815 18.5371C32.8518 18.5371 28.8411 22.5341 28.8411 27.447C28.8411 32.3599 32.8518 36.3569 37.7815 36.3569C42.7112 36.3569 46.7219 32.3599 46.7219 27.447C46.7219 22.5341 42.7112 18.5371 37.7815 18.5371Z" fill="#CCFF00"></path>
<g id="g46">
<g id="g12">
<g id="g10">
<g id="g8">
<path id="path6" d="M5.58368 27.0176C4.86175 27.0176 4.25213 26.5037 4.13066 25.7934L0.0214164 1.71538C-0.0450466 1.3271 0.044336 0.938818 0.273519 0.619058C0.502701 0.299297 0.841891 0.0868833 1.22921 0.0206471C2.03135 -0.114109 2.79453 0.424916 2.93204 1.22432L7.03899 25.3C7.10545 25.6883 7.01607 26.0766 6.78689 26.3964C6.5577 26.7161 6.21851 26.9285 5.83119 26.9948C5.75098 27.0085 5.66847 27.0176 5.58368 27.0176Z" fill="#CCFF00"></path>
</g>
</g>
</g>
<path id="path14" d="M12.4706 15.9105C10.1215 15.9105 7.93738 16.6117 6.11079 17.8153L6.60812 20.7297C8.17802 19.3662 10.2292 18.5371 12.4706 18.5371C17.4003 18.5371 21.411 22.5341 21.411 27.447C21.411 32.3599 17.4003 36.3569 12.4706 36.3569C7.54089 36.3569 3.5302 32.3599 3.5302 27.447C3.5302 26.7915 3.60354 26.1542 3.73875 25.5398L2.94578 20.901C1.65319 22.7625 0.8946 25.0191 0.8946 27.4493C0.8946 33.8102 6.08787 38.9858 12.4706 38.9858C18.8533 38.9858 24.0466 33.8102 24.0466 27.4493C24.0466 21.0883 18.8556 15.9105 12.4706 15.9105Z" fill="#CCFF00"></path>
<g id="g44">
<g id="g18">
<path id="circle16" d="M11.8381 34.1825C12.7089 34.1825 13.4148 33.479 13.4148 32.6111C13.4148 31.7433 12.7089 31.0397 11.8381 31.0397C10.9672 31.0397 10.2613 31.7433 10.2613 32.6111C10.2613 33.479 10.9672 34.1825 11.8381 34.1825Z" fill="#1CD8D2"></path>
</g>
<g id="g22">
<path id="circle20" d="M16.7632 32.3531C17.634 32.3531 18.34 31.6495 18.34 30.7817C18.34 29.9138 17.634 29.2103 16.7632 29.2103C15.8924 29.2103 15.1864 29.9138 15.1864 30.7817C15.1864 31.6495 15.8924 32.3531 16.7632 32.3531Z" fill="#1CD8D2"></path>
</g>
<g id="g26">
<path id="circle24" d="M12.89 28.9842C13.7608 28.9842 14.4668 28.2806 14.4668 27.4128C14.4668 26.5449 13.7608 25.8414 12.89 25.8414C12.0192 25.8414 11.3132 26.5449 11.3132 27.4128C11.3132 28.2806 12.0192 28.9842 12.89 28.9842Z" fill="#1CD8D2"></path>
</g>
<g id="g30">
<path id="circle28" d="M7.99697 30.5898C8.8678 30.5898 9.57375 29.8863 9.57375 29.0184C9.57375 28.1506 8.8678 27.447 7.99697 27.447C7.12614 27.447 6.4202 28.1506 6.4202 29.0184C6.4202 29.8863 7.12614 30.5898 7.99697 30.5898Z" fill="#1CD8D2"></path>
</g>
<g id="g34">
<path id="circle32" d="M17.7716 27.3739C18.6424 27.3739 19.3484 26.6704 19.3484 25.8025C19.3484 24.9347 18.6424 24.2311 17.7716 24.2311C16.9008 24.2311 16.1948 24.9347 16.1948 25.8025C16.1948 26.6704 16.9008 27.3739 17.7716 27.3739Z" fill="#1CD8D2"></path>
</g>
<g id="g38">
<path id="circle36" d="M13.9443 23.7857C14.8151 23.7857 15.521 23.0822 15.521 22.2143C15.521 21.3465 14.8151 20.6429 13.9443 20.6429C13.0734 20.6429 12.3675 21.3465 12.3675 22.2143C12.3675 23.0822 13.0734 23.7857 13.9443 23.7857Z" fill="#1CD8D2"></path>
</g>
<g id="g42">
<path id="circle40" d="M9.00308 25.6107C9.87391 25.6107 10.5799 24.9071 10.5799 24.0393C10.5799 23.1714 9.87391 22.4679 9.00308 22.4679C8.13225 22.4679 7.42631 23.1714 7.42631 24.0393C7.42631 24.9071 8.13225 25.6107 9.00308 25.6107Z" fill="#1CD8D2"></path>
</g>
</g>
</g>
<g id="g88">
<g id="g54">
<g id="g52">
<g id="g50">
<path id="path48" d="M56.2261 27.0176C55.5042 27.0176 54.8946 26.5037 54.7731 25.7934L50.6639 1.71538C50.5974 1.3271 50.6868 0.938818 50.916 0.619058C51.1452 0.299297 51.4843 0.0868833 51.8717 0.0206471C52.6738 -0.114109 53.437 0.424916 53.5745 1.22432L57.6837 25.3023C57.7502 25.6906 57.6608 26.0789 57.4316 26.3986C57.2025 26.7184 56.8633 26.9308 56.4759 26.997C56.3957 27.0085 56.3109 27.0176 56.2261 27.0176Z" fill="#CCFF00"></path>
</g>
</g>
</g>
<path id="path56" d="M63.1131 15.9105C60.7639 15.9105 58.5798 16.6117 56.7532 17.8153L57.2506 20.7297C58.8205 19.3662 60.8717 18.5371 63.1131 18.5371C68.0428 18.5371 72.0535 22.5341 72.0535 27.447C72.0535 32.3599 68.0428 36.3569 63.1131 36.3569C58.1833 36.3569 54.1726 32.3599 54.1726 27.447C54.1726 26.7915 54.246 26.1542 54.3812 25.5398L53.5882 20.901C52.2956 22.7625 51.537 25.0191 51.537 27.4493C51.537 33.8102 56.7303 38.9858 63.1131 38.9858C69.4958 38.9858 74.6891 33.8102 74.6891 27.4493C74.6891 21.0883 69.4981 15.9105 63.1131 15.9105Z" fill="#CCFF00"></path>
<g id="g86">
<g id="g60">
<path id="circle58" d="M62.4805 34.1825C63.3514 34.1825 64.0573 33.479 64.0573 32.6111C64.0573 31.7433 63.3514 31.0397 62.4805 31.0397C61.6097 31.0397 60.9037 31.7433 60.9037 32.6111C60.9037 33.479 61.6097 34.1825 62.4805 34.1825Z" fill="#1CD8D2"></path>
</g>
<g id="g64">
<path id="circle62" d="M67.4057 32.3531C68.2765 32.3531 68.9824 31.6495 68.9824 30.7817C68.9824 29.9138 68.2765 29.2103 67.4057 29.2103C66.5348 29.2103 65.8289 29.9138 65.8289 30.7817C65.8289 31.6495 66.5348 32.3531 67.4057 32.3531Z" fill="#1CD8D2"></path>
</g>
<g id="g68">
<path id="circle66" d="M63.5348 28.9842C64.4056 28.9842 65.1116 28.2806 65.1116 27.4128C65.1116 26.5449 64.4056 25.8414 63.5348 25.8414C62.6639 25.8414 61.958 26.5449 61.958 27.4128C61.958 28.2806 62.6639 28.9842 63.5348 28.9842Z" fill="#1CD8D2"></path>
</g>
<g id="g72">
<path id="circle70" d="M58.6394 30.5898C59.5103 30.5898 60.2162 29.8863 60.2162 29.0184C60.2162 28.1506 59.5103 27.447 58.6394 27.447C57.7686 27.447 57.0627 28.1506 57.0627 29.0184C57.0627 29.8863 57.7686 30.5898 58.6394 30.5898Z" fill="#1CD8D2"></path>
</g>
<g id="g76">
<path id="circle74" d="M68.4141 27.3739C69.2849 27.3739 69.9909 26.6704 69.9909 25.8025C69.9909 24.9347 69.2849 24.2311 68.4141 24.2311C67.5432 24.2311 66.8373 24.9347 66.8373 25.8025C66.8373 26.6704 67.5432 27.3739 68.4141 27.3739Z" fill="#1CD8D2"></path>
</g>
<g id="g80">
<path id="circle78" d="M64.5867 23.7857C65.4576 23.7857 66.1635 23.0822 66.1635 22.2143C66.1635 21.3465 65.4576 20.6429 64.5867 20.6429C63.7159 20.6429 63.0099 21.3465 63.0099 22.2143C63.0099 23.0822 63.7159 23.7857 64.5867 23.7857Z" fill="#1CD8D2"></path>
</g>
<g id="g84">
<path id="circle82" d="M59.6455 25.6107C60.5164 25.6107 61.2223 24.9071 61.2223 24.0393C61.2223 23.1714 60.5164 22.4679 59.6455 22.4679C58.7747 22.4679 58.0688 23.1714 58.0688 24.0393C58.0688 24.9071 58.7747 25.6107 59.6455 25.6107Z" fill="#1CD8D2"></path>
</g>
</g>
</g>
<g id="g100">
<g id="g96">
<g id="g94">
<g id="g92">
<path id="path90" d="M95.3109 27.8558C96.0329 27.8558 96.6425 28.3697 96.764 29.0801L98.2353 37.7342C98.3018 38.1224 98.2124 38.5107 97.9832 38.8305C97.754 39.1502 97.4148 39.3627 97.0275 39.4289C96.2254 39.5637 95.4622 39.0246 95.3247 38.2252L93.8533 29.5711C93.7869 29.1828 93.8762 28.7946 94.1054 28.4748C94.3346 28.155 94.6738 27.9426 95.0611 27.8764C95.1436 27.8627 95.2261 27.8558 95.3109 27.8558Z" fill="#CCFF00"></path>
</g>
</g>
</g>
<path id="path98" d="M88.424 38.9607C90.7731 38.9607 92.9572 38.2595 94.7838 37.0558L94.2865 34.1414C92.7166 35.505 90.6654 36.3341 88.424 36.3341C83.4943 36.3341 79.4836 32.3371 79.4836 27.4242C79.4836 22.5113 83.4943 18.5143 88.424 18.5143C93.3537 18.5143 97.3644 22.5113 97.3644 27.4242C97.3644 28.0797 97.2911 28.7169 97.1558 29.3313L97.9488 33.9701C99.2414 32.1087 100 29.8521 100 27.4219C100 21.0609 94.8067 15.8854 88.424 15.8854C82.0412 15.8854 76.848 21.0609 76.848 27.4219C76.848 33.7829 82.039 38.9607 88.424 38.9607Z" fill="#CCFF00"></path>
</g>
</g>
<defs>
<clipPath id="clip0_205_7">
<rect width="100" height="39.4495" fill="white"></rect>
</clipPath>
</defs>
</svg>

<svg class="partner-size" width="100" height="40" viewBox="0 0 100 40" fill="none" xmlns="http://www.w3.org/2000/svg"><g clip-path="url(#clip0_205_7)"><path d="M37.782 38.986c-6.383 0-11.576-5.176-11.576-11.537 0-6.36 5.193-11.536 11.576-11.536 6.382 0 11.576 5.175 11.576 11.536s-5.194 11.537-11.576 11.537Zm0-20.449c-4.93 0-8.94 3.997-8.94 8.91s4.01 8.91 8.94 8.91 8.94-3.997 8.94-8.91-4.01-8.91-8.94-8.91ZM5.584 27.018a1.468 1.468 0 0 1-1.453-1.225L.02 1.715A1.474 1.474 0 0 1 1.23.02a1.48 1.48 0 0 1 1.703 1.204L7.039 25.3a1.475 1.475 0 0 1-1.455 1.718Z" fill="#CF0"/><path d="M12.47 15.91c-2.349 0-4.533.702-6.36 1.905l.498 2.915a8.916 8.916 0 0 1 5.863-2.193c4.93 0 8.94 3.997 8.94 8.91s-4.01 8.91-8.94 8.91-8.94-3.997-8.94-8.91c0-.655.073-1.293.208-1.907L2.946 20.9a11.444 11.444 0 0 0-2.051 6.548c0 6.361 5.193 11.537 11.576 11.537 6.382 0 11.576-5.176 11.576-11.537 0-6.36-5.191-11.539-11.576-11.539Z" fill="#CF0"/><path d="M11.838 34.182c.87 0 1.577-.703 1.577-1.57 0-.869-.706-1.572-1.577-1.572-.87 0-1.577.703-1.577 1.571s.706 1.572 1.577 1.572ZM16.763 32.353c.871 0 1.577-.704 1.577-1.571 0-.868-.706-1.572-1.577-1.572-.87 0-1.577.704-1.577 1.572 0 .867.706 1.571 1.577 1.571ZM12.89 28.984c.87 0 1.577-.703 1.577-1.571s-.706-1.572-1.577-1.572c-.87 0-1.577.704-1.577 1.572 0 .868.706 1.571 1.577 1.571ZM7.997 30.59c.87 0 1.577-.704 1.577-1.572 0-.867-.706-1.571-1.577-1.571-.87 0-1.577.704-1.577 1.571 0 .868.706 1.572 1.577 1.572ZM17.772 27.374c.87 0 1.576-.704 1.576-1.572 0-.867-.706-1.57-1.576-1.57-.871 0-1.577.703-1.577 1.57 0 .868.706 1.572 1.577 1.572ZM13.944 23.786c.871 0 1.577-.704 1.577-1.572 0-.867-.706-1.571-1.577-1.571-.87 0-1.577.703-1.577 1.571s.706 1.572 1.577 1.572ZM9.003 25.61c.87 0 1.577-.703 1.577-1.57 0-.869-.706-1.572-1.577-1.572-.87 0-1.577.703-1.577 1.571s.706 1.572 1.577 1.572Z" fill="#1CD8D2"/><g><path d="M56.226 27.018a1.468 1.468 0 0 1-1.453-1.225l-4.11-24.078A1.474 1.474 0 0 1 51.872.02a1.48 1.48 0 0 1 1.704 1.204l4.109 24.078a1.474 1.474 0 0 1-1.458 1.715Z" fill="#CF0"/><path d="M63.113 15.91c-2.35 0-4.533.702-6.36 1.905l.498 2.915a8.916 8.916 0 0 1 5.862-2.193c4.93 0 8.94 3.997 8.94 8.91s-4.01 8.91-8.94 8.91-8.94-3.997-8.94-8.91c0-.655.073-1.293.208-1.907l-.793-4.639a11.443 11.443 0 0 0-2.051 6.548c0 6.361 5.193 11.537 11.576 11.537 6.383 0 11.576-5.176 11.576-11.537 0-6.36-5.19-11.539-11.576-11.539Z" fill="#CF0"/><path d="M62.48 34.182c.871 0 1.577-.703 1.577-1.57 0-.869-.706-1.572-1.577-1.572-.87 0-1.576.703-1.576 1.571s.706 1.572 1.576 1.572ZM67.406 32.353c.87 0 1.576-.704 1.576-1.571 0-.868-.706-1.572-1.576-1.572-.871 0-1.577.704-1.577 1.572 0 .867.706 1.571 1.577 1.571ZM63.535 28.984c.87 0 1.577-.703 1.577-1.571s-.706-1.572-1.577-1.572-1.577.704-1.577 1.572c0 .868.706 1.571 1.577 1.571ZM58.64 30.59c.87 0 1.576-.704 1.576-1.572 0-.867-.706-1.571-1.577-1.571-.87 0-1.576.704-1.576 1.571 0 .868.706 1.572 1.576 1.572ZM68.414 27.374c.87 0 1.577-.704 1.577-1.572 0-.867-.706-1.57-1.577-1.57-.87 0-1.577.703-1.577 1.57 0 .868.706 1.572 1.577 1.572ZM64.587 23.786c.87 0 1.576-.704 1.576-1.572 0-.867-.705-1.571-1.576-1.571-.871 0-1.577.703-1.577 1.571s.706 1.572 1.577 1.572ZM59.645 25.61c.871 0 1.577-.703 1.577-1.57 0-.869-.706-1.572-1.577-1.572-.87 0-1.576.703-1.576 1.571s.706 1.572 1.576 1.572Z" fill="#1CD8D2"/></g><g><path d="M95.31 27.856c.723 0 1.332.514 1.454 1.224l1.471 8.654a1.475 1.475 0 0 1-1.208 1.695 1.48 1.48 0 0 1-1.702-1.204l-1.472-8.654a1.474 1.474 0 0 1 1.458-1.715Z" fill="#CF0"/><path d="M88.424 38.96c2.35 0 4.533-.7 6.36-1.904l-.498-2.915a8.915 8.915 0 0 1-5.862 2.193c-4.93 0-8.94-3.997-8.94-8.91s4.01-8.91 8.94-8.91 8.94 3.997 8.94 8.91c0 .656-.073 1.293-.208 1.907l.793 4.64A11.443 11.443 0 0 0 100 27.42c0-6.36-5.193-11.536-11.576-11.536-6.383 0-11.576 5.176-11.576 11.537 0 6.36 5.191 11.539 11.576 11.539Z" fill="#CF0"/></g></g><defs><clipPath id="clip0_205_7"><path fill="#fff" d="M0 0h100v39.45H0z"/></clipPath></defs></svg>
